polaris-icons/icons/new-icons/ConversationMinor.svg

<svg width="20" height="20" viewBox="0 0 20 20" fill="none" xmlns="http://www.w3.org/2000/svg">
<path fill-rule="evenodd" clip-rule="evenodd" d="M7 15V12.7085C5.58114 12.4705 4.5 11.2365 4.5 9.75V8.5C4.5 6.84315 5.84315 5.5 7.5 5.5H12.5C14.1569 5.5 15.5 6.84315 15.5 8.5V9.75C15.5 11.4069 14.1569 12.75 12.5 12.75H10.039L7 15ZM10.5338 14.25H12.5C14.9853 14.25 17 12.2353 17 9.75V8.5C17 6.01472 14.9853 4 12.5 4H7.5C5.01472 4 3 6.01472 3 8.5V9.75C3 11.5176 4.01817 13.0455 5.5 13.7818V15C5.5 15.5665 5.81914 16.0847 6.32504 16.3396C6.83093 16.5945 7.43728 16.5426 7.89256 16.2055L10.5338 14.25ZM6 7.75C6 7.33579 6.33579 7 6.75 7H12.25C12.6642 7 13 7.33579 13 7.75C13 8.16421 12.6642 8.5 12.25 8.5H6.75C6.33579 8.5 6 8.16421 6 7.75ZM6.75 9.75C6.33579 9.75 6 10.0858 6 10.5C6 10.9142 6.33579 11.25 6.75 11.25H10.25C10.6642 11.25 11 10.9142 11 10.5C11 10.0858 10.6642 9.75 10.25 9.75H6.75Z" fill="#4A4A4A"/>
</svg>

<svg viewBox="0 0 20 20" xmlns="http://www.w3.org/2000/svg"><path fill-rule="evenodd" d="M7 15v-2.291a3 3 0 0 1-2.5-2.959v-1.25a3 3 0 0 1 3-3h5a3 3 0 0 1 3 3v1.25a3 3 0 0 1-3 3h-2.461l-3.039 2.25Zm3.534-.75h1.966a4.5 4.5 0 0 0 4.5-4.5v-1.25a4.5 4.5 0 0 0-4.5-4.5h-5a4.5 4.5 0 0 0-4.5 4.5v1.25a4.498 4.498 0 0 0 2.5 4.032v1.218a1.5 1.5 0 0 0 2.393 1.206l2.64-1.956Zm-4.534-6.5a.75.75 0 0 1 .75-.75h5.5a.75.75 0 0 1 0 1.5h-5.5a.75.75 0 0 1-.75-.75Zm.75 2a.75.75 0 0 0 0 1.5h3.5a.75.75 0 0 0 0-1.5h-3.5Z" fill="#5C5F62"/></svg>
